X:162
T:Monday Night
M:2/4
L:1/8
B:Thompson's Compleat Collection of 200 Favourite Country Dances, vol. 2 (London, 1765)
Z:Transcribed and edited by Flynn Titford-Mock, 2007
Z:abc's:AK/Fiddler's Companion
K:D
g | f d2 f | e c2 e | dB AG | F A2 f | g b2 g | afed | c e2 g | f d2 :|
|: A | F A2 =c | B G2 f | gfed | c e2 g | afec | dB AF | GE AG | F D2 :|

